X: 8993
T: Cwrw Melyn
R: slip jig
M: 9/8
K: Eminor
|:GAB BGE BGE|GAB BGE AFD|GAB BGE BGE|FGA AFD D3:|
|:Bcd dBG dBG|Bcd dBG cAF|GBd dBG dBG|FGA AFD D3:|

